X: 19
T: Kol Dodi
M:2/4
L:1/8
S:Deborah Jones/Vancouver IFD 1982
Z:Seymour.Shlien:crc.doc.ca
K:Em
|: "Em" ee/2d/2 "A" e2 | ee/2d/2 "Em" e2 | ef/2g/2 "D" ag/2f/2 | "C" gf "A" e2 :|
|: "Em" eb bb | "Am" aa g/2f/2e | "D" fg "C" ag/2f/2 |1 "A7" ga "B7" b2 :|2 "Bm" gf "E" e2 |

%%sep 1 1 500

